X:1
T:Title
%%score ( 1 2 ) { 3 | 4 }
L:1/8
Q:1/4=140
M:3/4
K:G
V:1 treble nm="Grand Piano, Soprano"
V:2 treble 
V:3 treble nm="Choir Pad, Morelos, Ira Sankey, 1902"
V:4 bass 
V:1
 D4 [DG]2 | [Gc]4 [GB]2 | [GB]4 [FA]2 | G6 | [Gc]4 [GB]2 | [Ge]4 [Gd]2 | [Gd]4 [G^c]2 | [Fd]6 | %8
w: By~Ira~David~Sankey,~1902 *||||||||
 G4 [GB]2 | [Gd]4 [DB]2 | [DB]4 [FA]2 | G6 | G2 c2 [Ge]2 | [Gd]4 [DB]2 | B2- [EB]2 [FA]2 | G6 | %16
w: ||||||||
 [Fd]4 [FA]2 | [Fd]4 [Fe]2 | [Gd]4 [Gd]2 | [GB]6 | c2 d2 [Ge]2 | d2 B2 G2 | B2- [DB]2 [FA]2 | G6- | %24
w: ||||||||
 G6 |] %25
w: |
V:2
 x6 | x6 | x6 | x6 | x6 | x6 | x6 | x6 | x6 | x6 | x6 | x6 | E4 z2 | x6 | D2 z2 z2 | x6 | x6 | x6 | %18
 x6 | x6 | G4 z2 | G4 z2 | G2 z2 z2 | x6 | x6 |] %25
V:3
 B,4 B,2 | E4 D2 | D4 C2 | B,6 | C4 D2 | C4 D2 | E4 E2 | D4 C2 | B,4 D2 | B,4 G,2 | %10
 G,4[K:treble] C2 | B,6 | C4 C2 | B,4 G,2 | D4 C2 | B,6 | A,4 D2 | A,4 C2 | B,4 B,2 | D6 | %20
 C2 B,2 C2 | B,2 D2 D2 | D4 C2 | B,6- | B,6 |] %25
V:4
 G,4 G,2 | G,4 G,2 | D,4 D,2 | G,6 | E,4 G,2 | z2 z2 B,2 | A,4 A,2 | D,6 | G,4 G,2 | G,4 G,,2 | %10
 D,4 D,2 | E,6 | C,4 C,2 | G,4 z2 | D,4 D,2 | G,6 | D,4 D,2 | D,4 D,2 | G,4 G,2 | G,6 | %20
 E,2 D,2 C,2 | G,4 B,,2 | D,4 D,2 | G,,6- | G,,6 |] %25

